X:1
T:Winterreise, D.911
T:Der Wegweiser
T:Winterreise, D.911
T:20. Der Wegweiser
T:Franz Schubert
T:Wilhelm Müller
T:OpenScore (CC0)
T:OpenScore (CC0)
T:OpenScore (CC0)
T:OpenScore (CC0)
T:OpenScore (CC0)
T:OpenScore (CC0)
C:Franz Schubert
Z:Wilhelm Müller
Z:OpenScore (CC0)
%%score 1 { ( 2 5 ) | ( 3 4 ) }
L:1/8
Q:1/4=40
M:2/4
K:Bb
V:1 treble nm="Singstimme\nVoice"
V:2 treble nm="Pianoforte"
V:5 treble 
V:3 bass 
V:4 bass 
V:1
"^Mässig" z | z4 | z4 | z4 | z4 | z2 z G/ A/ | B B B B | B2 G A/ B/ | c B A G | A2 z2 | %10
w: |||||Was ver-|meid' ich denn die|We- ge, wo die|an- dern Wan- drer|gehn,|
w: ||||||||||
 z2 z A/ B/ | c c c c | c2 A G/ A/ | B B B B | (B2 G) G/ G/ | _A A (G/c/) (c/B/) | _A2 G G/ G/ | %17
w: su- che|mir ver- steck- te|Ste- ge durch ver-|schnei- te Fel- sen-|höhn? _ su- che|mir ver- steck- * te *|Ste- ge durch ver-|
w: |||||||
 (G/>=A/) (B/>c/) d3/2 ^F/ | (G/>=A/) (B/>c/) d3/2 ^F/ | G2 z2 | z4 | z2 z G/ A/ ||[K:G] B B B B | %23
w: schnei- * te * Fel- sen-|höhn,- * durch * Fel- sen-|höhn?||Ha- be|ja doch nichts be-|
w: ||||||
 B2 G A/ B/ | c B A G | A3 B/ c/ | d c B A | B2 z B/ B/ | e3/2 e/ e e | ^d2 B c/ B/ | e e e e | %31
w: gan- gen, dass ich|Men- schen soll- te|scheun, dass ich|Men- schen soll- te|scheun, welch ein|thö- rich- tes Ver-|lan- gen treibt mich|in die Wü- ste-|
w: ||||||||
 ^d B c3/2 B/ | A G F ^A | B2 z2 | z4 | z4 | z4 | z4 | z4 | z4 | z2 z G/ A/ ||[K:Bb] B B B B | %42
w: nei- en, treibt mich|in die Wü- ste-|nei'n?|||||||Wei- ser|ste- hen auf den|
w: |||||||||||
 B2 G A/ B/ | c B A G | A2 z2 | z2 z A/ B/ | c c c c | c2 A G/ A/ | B B _g3/2 f/ | =e3 G/ G/ | %50
w: We- gen, wei- sen|auf die Stä- dte|zu,|und ich|wan- dre son- der|Ma- ssen, oh- ne|Ruh, und su- che|Ruh, und ich|
w: (Stra- ssen) * *||||||||
 _A A G/c/ c/B/ | _A2 G c/ e/ | d g A3/2 d/ | B g A3/2 d/ | G2 z2 | z4 | z2 z G/ G/ | G G G G | %58
w: wan- dre son- * der *|Ma- ssen, oh- ne|Ruh, und su- che|Ruh, und su- che|Ruh.||Ei- nen|Wei- ser seh' ich|
w: ||||||||
 G2 G G/ G/ | G G G G | G2 z G/ G/ | B B B B | B2 B B/ B/ | _d d d d | _d2 d d/ d/ | =d4- | %66
w: ste- hen un- ver-|rückt vor mei- nem|Blick; ei- ne|Stra- sse muss ich|ge- hen, ei- ne|Stra- sse muss ich|ge- hen, die noch|kei-|
w: ||||||||
 d (c/_A/) G ^F | G2 z2 | z2 z G/ G/ | G G G G | G G z G/ G/ | G G G G | G2 z G/ G/ | B B B B | %74
w: * * ner ging zu-|rück.|Ei- nen|Wei- ser seh' ich|ste- hen un- ver-|rückt * mei- nem|Blick; ei- ne|Stra- sse muss ich|
w: ||||||||
 B B z B/ B/ | (A d3-) | d (c/_A/) G ^F | G2[Q:1/4=30] z2 | G2 G2 | B2 G2 | A2 ^F2 | G4 | z4 | %83
w: ge- hen, die noch|kei- *|* * ner ging zu-|rück,|die noch|kei- ner|ging zu-|rück.||
w: |||||||||
 !fermata!z4 |] %84
w: |
w: |
V:2
!pp! (G/A/) | (.[GB].[GB] .[GB].[GB]) | ([GB]2 G) z | (.[C^FA].[CFA].[CGA].[CGA]) | ([DA]4 | %5
 [DGB]2) z (G/A/) | (.[GB].[GB].[GB].[GB]) | [GB]3 A/B/ | ([Gc][GB][EA][CG]) | %9
 [A,D^F]2!<(! ([B,DG]/[A,DF]/[B,DG]/[CFA]/)!<)! |!>(! [DGB][DGB][DGB][DGB]!>)! | %11
 [CGc][Gc][_Ac][Gc] | [^Fc]3 [FA] | [=FB][FB][_GB][FB] | (([=EB]2 [EG]))[CEG] | %15
 [CF_A][CFA][C=EG][CEG] | (([CF_A]2 [C=EG]))[C_EG] | [B,DG]"_cresc."[B,DG][A,DG][A,D^F] | %18
 [B,DG][B,DG][A,DG][A,D^F] |!p! [B,DG][B,DG] [A,DG][A,D^F] | (.G.G.G.G) | (.G.G.G) (G/A/) || %22
[K:G]!pp! (.[GB].[GB].[GB].[GB]) | ([GB]2 G) A/B/ | ([Gc][GB][DA][DG]) | A3 ([GB]/[Ac]/ | %26
 [Bd][Gc][GB][FA] | [GB])[GB]!<(!([AB][F^d])!<)! | [Ee]3 (G/A/ | B)BB (c/B/) | %30
!>(! [Ee]3 (G/A/!>)! | B)(B!>!c>B) | (AGF^A) | (.B.B.B.B) | B4 | (.B.B.B.B) | B4 | %37
!<(! (._B.B.B.B)!<)! |!>(! _B4!>)! | (.[DG_B]2 .[DFA]2) | z2 z!p! (G/A/ || %41
[K:Bb] (.[GB]).[GB].[GB].[GB]) | ([GB]2 G) (A/B/ | ([Gc])[GB][EA][CG]) | %44
!<(! ([A,D^F]2 [B,DG]/[A,DF]/[B,DG]/[CFA]/)!<)! |!>(! [DGB][DGB][DGB][DGB]!>)! | %46
 [CGc][Gc][_Ac][Gc] | [^Fc]3 [FA] | [=FB][FB][_GB][FB] | (([=EB]2 [EG]))[CEG] | %50
 [CF_A][CFA] [C=EG][CEG] | ([CF_A]2 [C=EG])[C_EG] | G/>A/"_cresc."B/>c/ dd | G/>A/B/>c/ dd | %54
!p! [B,DG][B,DG][A,DG][A,D^F] | (.G.G.G"_dim.".G) | (.G.G.G.G) | %57
!pp! (.[B,=EG].[B,EG].[B,EG].[B,EG]) | [B,DG]4 | (.[B,_DG].[B,DG].[B,DG].[B,DG]) | [B,_DG]4 | %61
"_cresc." [B,_DF][B,DF] [B,DF][B,DF] | [B,_D=E]4 | [^G,^C=E][G,CE] [G,CE][G,CE] | [=G,^C=E]4 | %65
!<(! [A,=CD][A,CD]!<)!!>(![G,B,D][^F,CD]!>)! | ([G,B,D][_A,C][G,B,][^F,=A,]) | (.G,.G,.G,.G, | %68
 .G,.G,.G,.G,) | G,G,G,G, | G,G,G,G, | G,G,G,G, |"_cresc." G,G,G,G, | G,G,G,G, | G,G,G,G, | %75
 [A,C]!<(![A,C]!<)!!>(![G,B,]!>)![^F,C] | ([G,B,][_A,C][G,B,][^F,A,]) | G,2 ([=B,G]2 | %78
 [CG]2 [_B,^CG]2 | [B,DG]2 [B,G]2 | [CEA]2 [A,D^F]2) | [B,DG]4 | [B,DG]2 [B,DG]2 | %83
 !fermata![B,DG]4 |] %84
V:3
 (B,/C/) | (.[G,D].[G,D] .[G,D].[G,D]) | (D2 B,) (C,/D,/ | E,)E,E,E, | (D,4 | G,2) z2 | %6
 z2 z (E,/F,/ | .E,.E,.E,.E,) | (E,2 C,D,/E,/) | (D,C, B,,/C,/B,,/A,,/) | G,,2 z G,, | E,3 E, | %12
 D,({D,E,)F,}(!>!E,/>D,/) (.D,.D,) | _D,3 D, | C,{C,_D,E,}(!>!D,/>C,/) (C,C,) | F,,_A,,C,C,, | %16
 F,,/>G,,/_A,,/>B,,/ C,C, | D,D,D,D, | D,D,D,D, | G,,/>A,,/B,,/>C,/ D,[D,,D,] | [G,,D,]2 z2 | %21
 z2 z (=B,/C/) ||[K:G] (.[G,D].[G,D].[G,D].[G,D]) | (([G,D]2 [G,B,])) C/D/ | %24
 ([G,E][G,D][F,C][G,B,]) | ([D,D][E,^C][D,D])(([D,D] | [D,D]))([E,C][G,D][D,D]) | %27
 [G,D][G,D][F,^D][B,,A,] | G,3 (G,/A,/ | B,)B,B, (C/B,/) | G,3 (G,/A,/ | B,) (B,C>B,) | %32
 (A,G,F,^A,) |!pp! B,2 z2 | (.[B,^D].[B,D].[B,D].[B,D]) | [B,=D]2 z2 | (.[B,D].[B,D].[B,D].[B,D]) | %37
 [G,D]2 z2 | (.[_E,^C].[E,C].[E,C].[E,C]) | (.D,2 .D,2) | z4 ||[K:Bb] z2 z (C,/D,/ | %42
 .E,.E,.E,.E,) | (E,2 C,D,/E,/) | (D,C, B,,/C,/B,,/A,,/) | G,,2 z G,, | E,3 E, | %47
 D,{D,E,F,}(!>!E,/>D,/) D,D, | _D,3 D, | C,({C,_D,)E,}(!>!D,/>C,/) C,C, | F,,_A,,C,C,, | %51
 F,,/>G,,/_A,,/>B,,/ C,C, | [D,B,][D,B,][D,A,][D,A,] | [D,B,][D,B,][D,A,][D,A,] | %54
 G,,/>A,,/B,,/>C,/ D,[D,,D,] | [G,,D,]2 z2 | z4 | (^C,4 | (.D,).D,.D,.D,) | (E,4 | %60
 (.=E,).E,.E,.E,) | F,4 | G,,G,,G,,G,, | ^G,,4 | A,,A,,A,,A,, |!f! [^F,,D,][F,,D,][G,,D,][A,,D,] | %66
!p! [G,,D,][C,E,]D,[D,,D,] | G,,2 z2 | z4 |!pp! (=B,,,4 | (C,,4) | (^C,,4) | (D,,4) | E,,4) | %74
 =E,,4 |!f! [^F,,D,][F,,D,][G,,D,][A,,D,] |!p! [G,,D,][C,E,]D,[D,,D,] | G,,2!pp! (=F,,2 | %78
 =E,,2 _E,,2 | D,,2 E,,2 | C,,2 D,,2) | (G,,,2 G,,2 | D,,2 B,,,2) | !fermata![G,,,G,,]4 |] %84
V:4
 x | x4 | G,3 x | x4 | x4 | x4 | x4 | x4 | x4 | x4 | x4 | x4 | x4 | x4 | x4 | x4 | x4 | x4 | x4 | %19
 x4 | x4 | z4 ||[K:G] x4 | x3 G, | x4 | x4 | x4 | x4 | C,4 | B,,2 z2 | C,4 | B,, x x2 | x4 | x4 | %34
 x4 | x4 | x4 | x4 | x4 | x4 | x4 ||[K:Bb] x4 | x4 | x4 | x4 | x4 | x4 | x4 | x4 | x4 | x4 | x4 | %52
 x4 | x4 | x4 | x4 | x4 | x4 | x4 | x4 | x4 | x4 | x4 | x4 | x4 | x4 | x4 | x4 | x4 | x4 | x4 | %71
 x4 | x4 | x4 | x4 | x4 | x4 | x4 | x4 | x4 | x4 | x4 | x4 | x4 |] %84
V:5
 x | x4 | x4 | x4 | G^F/=E/ F2 | x4 | x4 | x3 G | x4 | x4 | x4 | x4 | x4 | x4 | x4 | x4 | x4 | x4 | %18
 x4 | x4 | [B,D]2 z2 | x4 ||[K:G] x4 | x3 G | x4 | (FGF) x | x4 | x4 | x4 | x4 | x4 | x4 | x4 | %33
 x4 | FFFF | F2 z2 | FFFF | G2 z2 | GGGG | x4 | x4 ||[K:Bb] x4 | x3 G | x4 | x4 | x4 | x4 | x4 | %48
 x4 | x4 | x4 | x4 | GG G^F | GG G^F | x4 | [B,D]2 z2 | x4 | x4 | x4 | x4 | x4 | x4 | x4 | x4 | %64
 x4 | x4 | x4 | x4 | x4 | (F4 | (=E4) | (_E4) | (D4) | (_D4) | C4) | x4 | x4 | x4 | x4 | x4 | x4 | %81
 x4 | x4 | x4 |] %84

